!!!OTL: 148. Der Verblueffte.
!!!COM: Volksweise
!!!ODT: 1830
!!!ARE: Europa, Mitteleuropa, Deutschland, Thueringen
!!!SCT: B0148
!!!TXL: @@DE
!!!YEM: Copyright 1995, estate of Helmut Schaffrath.
**kern	**text
*ICvox	*
*Ivox	*
*M6/8	*
*clefG2	*
*k[b-e-]	*
*B-:	*
!LO:TX:a:t=Gehende Bewegung.	!
{8f	Sie
=1	=1
4b-	ging
8b-	ʒum
8aL	Sonn-
8gJ	.
8a	-tags-
=2	=2
4.b-	-tan-
4f}	-ʒe,
{8f	ſchon
=3	=3
4dd	klang
8b-	Mu-
8fL	-ſik-
8gJ	.
8a	-ge-
=4	=4
4.b-	-tön,
4r}	.
{8dd	und
=5	=5
4dd	ſie
8dd	im
8ddL	grü-
8ccJ	.
8dd	-nen
=6	=6
(4b-/	Kran-
8a)	.
8gL	-ʒe,
8aJ}	.
{8b-/	ſie
=7	=7
8ccL	war
8ddJ	.
8cc	ſo
8b-L	wun-
8aJ	.
8g	-der-
=8	=8
4.f	-ſchön,
4r}	.
{8f	und
=9	=9
8ee-L	ſie
8ddJ	.
8cc	im
8ccL	grü-
8b-J	.
8a	-nen
=10	=10
8b-L	Kran-
8dd	.
8ccJ	.
(8b-/L	-ʒe,
8aJ)}	.
{8b-	ſie
=11	=11
8g/L	war
8ee-J	.
8dd	ſo
(8ddq	.
8ccL)	wun-
8b-J	.
8a	-der-
=12	=12
4.b-	-ſchön.
4r}	.
==	==
!!!AGN: Ballade, Romanze
!!!GTL: Balladen und Romanzen
!!!ONB: ESAC (Essen Associative Code) Database: BOEHME
!!!AMT: compound duple
!!!AIN: vox
!!!EED: Helmut Schaffrath
!!!EEV: 1.0
!!Volteweiſe in Thüringen um 1830 ſchon bekannt.
!!@@COMMENT:"Romanʒe von Chr. A. Tiedge, deſſen Werke, herausgeg. von Eberhard. N. A. Halle 1827.
!!6. Bändchen S. 32. Abdruck bei Erlach 5, S. 160. - Jm Volksmund iſt das Gedicht nach und
!!nach ſehr umgeſtaltet: ich gebe dieſe volksthümliche Lesart; die 7. Str. lautet bei Tiedge: "Wenn
!!das ſo mit mir bliebe, ich würde noch ʒum Tropf. Ach! glaubt es nur, die Liebe verwirrt den klügſten Kopf.[...]
!!Die Volksmelodie, welche in ganz Norddeutchland und am Rhein beliebt was, steht bei Wedeman,
!!Volksl. II,Nr. 68, auch bei Erk I, 3, 72 u.Fink 56. Schubert, Concordia I, 181."
!!@@END:
!!!Text: Chr. A. Tiedge
!!!URL-scan: https://archive.org/details/BoehmeVtLieder1895/page/n149/mode/2up
!!!ENC: Anna Maria Matuszewska
!!!EEV: 2024/19/06
*-	*-
